Adwaitaru/symbolic/ui/window-restore-symbolic.svg

<svg width="16" height="16" version="1.1" viewBox="0 0 4.2333 4.2333" xmlns="http://www.w3.org/2000/svg">
<g transform="scale(.26458)" color="#000000" fill="#808080" font-family="sans-serif" font-weight="400" white-space="normal">
<path d="m4 6v6h6v-6zm1 1h4v4h-4z" overflow="visible" style="font-feature-settings:normal;font-variant-alternates:normal;font-variant-caps:normal;font-variant-ligatures:normal;font-variant-numeric:normal;font-variant-position:normal;isolation:auto;mix-blend-mode:normal;shape-padding:0;text-decoration-color:#000000;text-decoration-line:none;text-decoration-style:solid;text-indent:0;text-orientation:mixed;text-transform:none"/>
<path d="m6 4v1h5v5h1v-6z" overflow="visible" style="font-feature-settings:normal;font-variant-alternates:normal;font-variant-caps:normal;font-variant-ligatures:normal;font-variant-numeric:normal;font-variant-position:normal;isolation:auto;mix-blend-mode:normal;shape-padding:0;text-decoration-color:#000000;text-decoration-line:none;text-decoration-style:solid;text-indent:0;text-orientation:mixed;text-transform:none"/>
</g></svg>

<?xml version="1.0" encoding="utf-8"?>
<svg width="16" height="16" viewBox="0 0 16 16" fill="gray" xmlns="http://www.w3.org/2000/svg">
<path d="M4 6L4 12L10 12L10 6ZM5 7L9 7L9 11L5 11ZM6 4L6 5L11 5L11 10L12 10L12 4Z"/>
</svg>
